X:1767
L:1/8
M:3/4
K:F
"F" FA ca gf |"Bb" ee d>^c d2 |"C7" cb a3 g |"F" dd c>=B c2 | FA ca gf |"Bb" ee d>^c d2 | 
"C7" cc b2 ag |"F" f2 f2 z2 ::"C7" gg c>=B c2 |"F" aa c=B c2 |"C7" c2 e>f g2 |"F" c2 f>g a2 | 
"C7" gg c>=B c2 |"F" aa c=B c2 |"C7" cc a2 g2 |"F" f2 f2 z2 ::[K:Bb]"Bb" ff d3 f |"F7" ff e4 | 
 ag fe dc |"Bb" cA B>g f2 | ff d3 f |"F7" ff e4 | ag fe dc |"Bb" B2 B2 z2 ::"F7" e>A c>g f2 | 
"Bb" d>A Bg f2 |"F7" c>g f2 f2 |"Bb" fb d2 d2 |"F7" e>A c>g f2 |"Bb" d>A B>g f2 |"F7" ca ag eA | 
"Bb" B2 B2 z2 :|

